src/images/spotco.svg

<svg width="95" height="37" viewBox="0 0 95 37" fill="none" xmlns="http://www.w3.org/2000/svg">
<path d="M26.9357 21.8939C25.4882 25.3238 22.0789 27.7504 18.1285 27.7504C12.8523 27.7504 8.57722 23.4529 8.57722 18.1794C8.57722 12.8923 12.8658 8.60845 18.1285 8.60845C22.1871 8.60845 25.6505 11.1571 27.044 14.7496H29.9526C28.4645 9.61164 23.7294 5.8429 18.1285 5.8429C11.3371 5.8429 5.81736 11.374 5.81736 18.1794C5.81736 24.9848 11.3371 30.5159 18.1285 30.5159C23.6212 30.5159 28.2886 26.8963 29.8715 21.9075H26.9357V21.8939Z" fill="#484848"/>
<path d="M33.2401 18.0439C33.2401 26.4625 26.4081 33.3222 17.9932 33.3222C9.59188 33.3222 2.74634 26.4761 2.74634 18.0439C2.74634 9.6252 9.57835 2.76555 17.9932 2.76555C26.4081 2.76555 33.2401 9.61164 33.2401 18.0439ZM36 18.0439C36 8.0933 27.9233 0 18.0068 0C8.07666 0 0 8.0933 0 18.0439C0 27.9944 8.07666 36.0877 18.0068 36.0877C27.9233 36.0742 36 27.9809 36 18.0439Z" fill="#484848"/>
<path fill-rule="evenodd" clip-rule="evenodd" d="M18.0068 11.5909C14.3811 11.5909 11.4318 14.5463 11.4318 18.1794C11.4318 21.8126 14.3811 24.7679 18.0068 24.7679C21.6325 24.7679 24.5817 21.8126 24.5817 18.1794C24.5682 14.5327 21.6325 11.5909 18.0068 11.5909ZM17.6415 21.9482C16.9245 21.9482 16.2074 21.7584 15.4363 21.4466L15.5039 19.63H16.0992C16.3833 20.2807 16.9921 20.6603 17.6415 20.6603C18.2097 20.6603 18.575 20.3349 18.575 19.9418C18.575 19.3317 17.9256 19.1419 17.0868 18.7759C16.018 18.3014 15.4769 17.6101 15.4769 16.7424C15.4769 15.5088 16.4104 14.6547 18.0879 14.6547C18.7373 14.6547 19.3461 14.8038 20.0225 15.0614V16.8102H19.4002C19.062 16.2002 18.575 15.8748 18.0473 15.8748C17.5738 15.8748 17.2492 16.173 17.2492 16.5255C17.2492 17.1627 17.9797 17.366 19.1838 17.9219C19.9278 18.2743 20.4284 18.9657 20.4284 19.7249C20.4149 20.9856 19.3461 21.9482 17.6415 21.9482Z" fill="#484848"/>
<path d="M51.4534 10.304H54.7212C57.1254 10.304 58.1758 11.6139 58.1758 14.7247C58.1758 17.7186 56.9854 19.4027 55.2114 19.4027H53.6708V25.6478H51.4534V10.304ZM54.5345 17.2274C55.6316 17.2274 55.9117 16.5725 55.9117 14.7949C55.9117 13.0874 55.5849 12.5261 54.4645 12.5261H53.6708V17.2274H54.5345Z" fill="#484848"/>
<path d="M51.4534 10.304H54.7212C57.1254 10.304 58.1758 11.6139 58.1758 14.7247C58.1758 17.7186 56.9854 19.4027 55.2114 19.4027H53.6708V25.6478H51.4534V10.304ZM54.5345 17.2274C55.6316 17.2274 55.9117 16.5725 55.9117 14.7949C55.9117 13.0874 55.5849 12.5261 54.4645 12.5261H53.6708V17.2274H54.5345Z" fill="#484848"/>
<path d="M63.8945 10C65.9019 10 67.2324 11.4502 67.2324 13.9295V21.7885C67.2324 24.5017 65.9719 25.9752 63.8012 25.9752C61.607 25.9752 60.3933 24.5251 60.3933 21.7183V13.8593C60.3933 11.4736 61.6771 10 63.8945 10ZM64.9449 13.6956C64.9449 12.6197 64.5481 12.1051 63.8012 12.1051C63.0542 12.1051 62.6574 12.6197 62.6574 13.6956V22.2563C62.6574 23.3322 63.0542 23.8702 63.8012 23.8702C64.5481 23.8702 64.9449 23.3322 64.9449 22.2563V13.6956Z" fill="#484848"/>
<path d="M63.8945 10C65.9019 10 67.2324 11.4502 67.2324 13.9295V21.7885C67.2324 24.5017 65.9719 25.9752 63.8012 25.9752C61.607 25.9752 60.3933 24.5251 60.3933 21.7183V13.8593C60.3933 11.4736 61.6771 10 63.8945 10ZM64.9449 13.6956C64.9449 12.6197 64.5481 12.1051 63.8012 12.1051C63.0542 12.1051 62.6574 12.6197 62.6574 13.6956V22.2563C62.6574 23.3322 63.0542 23.8702 63.8012 23.8702C64.5481 23.8702 64.9449 23.3322 64.9449 22.2563V13.6956Z" fill="#484848"/>
<path d="M69.5199 10.304H76.359V12.5261H74.0482V25.6478H71.8307V12.5261H69.5199V10.304Z" fill="#484848"/>
<path d="M69.5199 10.304H76.359V12.5261H74.0482V25.6478H71.8307V12.5261H69.5199V10.304Z" fill="#484848"/>
<path d="M44.1708 21.4156C44.2408 22.9593 44.7076 23.7078 45.6413 23.7078C46.4583 23.7078 46.9951 23.1231 46.9951 22.2343C46.9951 20.9478 46.1782 20.176 44.9877 18.9129C43.3772 17.2054 42.2334 15.9424 42.2334 13.9075C42.2334 11.6855 43.7973 10.0716 45.6646 10.0716C47.5086 10.0716 48.8158 11.4749 48.9792 13.8841L46.8084 14.2116C46.7384 12.8783 46.4116 12.2936 45.5946 12.2936C44.8944 12.2936 44.4042 12.8316 44.4042 13.697C44.4042 15.077 45.3612 16.0126 46.6217 17.3224C48.1389 18.9129 49.0959 20.059 49.0959 22.1875C49.0959 24.4563 47.6254 26 45.6646 26C43.4939 26 42.0934 24.4563 42 21.7665L44.1708 21.4156Z" fill="#484848"/>
<path d="M44.1708 21.4156C44.2408 22.9593 44.7076 23.7078 45.6413 23.7078C46.4583 23.7078 46.9951 23.1231 46.9951 22.2343C46.9951 20.9478 46.1782 20.176 44.9877 18.9129C43.3772 17.2054 42.2334 15.9424 42.2334 13.9075C42.2334 11.6855 43.7973 10.0716 45.6646 10.0716C47.5086 10.0716 48.8158 11.4749 48.9792 13.8841L46.8084 14.2116C46.7384 12.8783 46.4116 12.2936 45.5946 12.2936C44.8944 12.2936 44.4042 12.8316 44.4042 13.697C44.4042 15.077 45.3612 16.0126 46.6217 17.3224C48.1389 18.9129 49.0959 20.059 49.0959 22.1875C49.0959 24.4563 47.6254 26 45.6646 26C43.4939 26 42.0934 24.4563 42 21.7665L44.1708 21.4156Z" fill="#484848"/>
<path d="M91.3911 10C93.3985 10 94.7289 11.4502 94.7289 13.9295V21.7885C94.7289 24.5017 93.4685 25.9752 91.2977 25.9752C89.1036 25.9752 87.8898 24.5251 87.8898 21.7183V13.8593C87.9131 11.4736 89.1969 10 91.3911 10ZM92.4414 13.6956C92.4414 12.6197 92.0446 12.1051 91.2977 12.1051C90.5508 12.1051 90.154 12.6197 90.154 13.6956V22.2563C90.154 23.3322 90.5508 23.8702 91.2977 23.8702C92.0446 23.8702 92.4414 23.3322 92.4414 22.2563V13.6956Z" fill="#484848"/>
<path d="M91.3911 10C93.3985 10 94.7289 11.4502 94.7289 13.9295V21.7885C94.7289 24.5017 93.4685 25.9752 91.2977 25.9752C89.1036 25.9752 87.8898 24.5251 87.8898 21.7183V13.8593C87.9131 11.4736 89.1969 10 91.3911 10ZM92.4414 13.6956C92.4414 12.6197 92.0446 12.1051 91.2977 12.1051C90.5508 12.1051 90.154 12.6197 90.154 13.6956V22.2563C90.154 23.3322 90.5508 23.8702 91.2977 23.8702C92.0446 23.8702 92.4414 23.3322 92.4414 22.2563V13.6956Z" fill="#484848"/>
<path d="M78.7866 13.8593C78.7866 11.4736 80.0703 10 82.2645 10C84.2719 10 85.6023 11.4502 85.6023 13.9295V15.403H83.3148V13.719C83.3148 12.6431 82.918 12.1285 82.1711 12.1285C81.4242 12.1285 81.0274 12.6431 81.0274 13.719V22.2796C81.0274 23.3556 81.4242 23.8935 82.1711 23.8935C82.918 23.8935 83.3148 23.3556 83.3148 22.2796V20.198H85.6023V21.8118C85.6023 24.5251 84.3419 25.9986 82.1711 25.9986C79.9303 25.9986 78.7632 24.5485 78.7632 21.7417V13.8593H78.7866Z" fill="#484848"/>
<path d="M78.7866 13.8593C78.7866 11.4736 80.0703 10 82.2645 10C84.2719 10 85.6023 11.4502 85.6023 13.9295V15.403H83.3148V13.719C83.3148 12.6431 82.918 12.1285 82.1711 12.1285C81.4242 12.1285 81.0274 12.6431 81.0274 13.719V22.2796C81.0274 23.3556 81.4242 23.8935 82.1711 23.8935C82.918 23.8935 83.3148 23.3556 83.3148 22.2796V20.198H85.6023V21.8118C85.6023 24.5251 84.3419 25.9986 82.1711 25.9986C79.9303 25.9986 78.7632 24.5485 78.7632 21.7417V13.8593H78.7866Z" fill="#484848"/>
</svg>

<svg id="Layer_1" data-name="Layer 1" xmlns="http://www.w3.org/2000/svg" viewBox="0 0 94.73 36.09"><defs><style>.cls-1{fill:#484848;}</style></defs><title>spotco</title><path class="cls-1" d="M26.94,21.89A9.58,9.58,0,1,1,27,14.75H30a12.32,12.32,0,1,0-.08,7.16H26.94Z"/><path class="cls-1" d="M33.24,18A15.25,15.25,0,1,1,18,2.77,15.28,15.28,0,0,1,33.24,18ZM36,18a18,18,0,1,0-18,18A18,18,0,0,0,36,18Z"/><path class="cls-1" d="M18,11.59a6.59,6.59,0,1,0,6.57,6.59A6.59,6.59,0,0,0,18,11.59Zm-.37,10.36a5.88,5.88,0,0,1-2.21-.5l.07-1.82h.6a1.68,1.68,0,0,0,1.54,1c.57,0,.93-.33.93-.72,0-.61-.65-.8-1.49-1.17a2.26,2.26,0,0,1-1.61-2c0-1.23.93-2.09,2.61-2.09a5.33,5.33,0,0,1,1.93.41v1.75H19.4A1.58,1.58,0,0,0,18,15.87a.72.72,0,0,0-.8.65c0,.64.73.84,1.93,1.4a2.05,2.05,0,0,1,1.24,1.8C20.41,21,19.35,21.95,17.64,21.95Z"/><path class="cls-1" d="M51.45,10.3h3.27c2.4,0,3.45,1.31,3.45,4.42s-1.19,4.68-3,4.68H53.67v6.25H51.45Zm3.08,6.92c1.1,0,1.38-.65,1.38-2.43s-.33-2.27-1.45-2.27h-.79v4.7Z"/><path class="cls-1" d="M51.45,10.3h3.27c2.4,0,3.45,1.31,3.45,4.42s-1.19,4.68-3,4.68H53.67v6.25H51.45Zm3.08,6.92c1.1,0,1.38-.65,1.38-2.43s-.33-2.27-1.45-2.27h-.79v4.7Z"/><path class="cls-1" d="M63.89,10c2,0,3.34,1.45,3.34,3.93v7.86C67.23,24.5,66,26,63.8,26s-3.41-1.45-3.41-4.26V13.86C60.39,11.47,61.68,10,63.89,10Zm1.05,3.7c0-1.08-.4-1.59-1.14-1.59s-1.14.51-1.14,1.59v8.56c0,1.08.4,1.61,1.14,1.61s1.14-.54,1.14-1.61Z"/><path class="cls-1" d="M63.89,10c2,0,3.34,1.45,3.34,3.93v7.86C67.23,24.5,66,26,63.8,26s-3.41-1.45-3.41-4.26V13.86C60.39,11.47,61.68,10,63.89,10Zm1.05,3.7c0-1.08-.4-1.59-1.14-1.59s-1.14.51-1.14,1.59v8.56c0,1.08.4,1.61,1.14,1.61s1.14-.54,1.14-1.61Z"/><path class="cls-1" d="M69.52,10.3h6.84v2.22H74V25.65H71.83V12.53H69.52Z"/><path class="cls-1" d="M69.52,10.3h6.84v2.22H74V25.65H71.83V12.53H69.52Z"/><path class="cls-1" d="M44.17,21.42c.07,1.54.54,2.29,1.47,2.29A1.33,1.33,0,0,0,47,22.23c0-1.29-.82-2.06-2-3.32-1.61-1.71-2.75-3-2.75-5a3.6,3.6,0,0,1,3.43-3.84c1.84,0,3.15,1.4,3.31,3.81l-2.17.33c-.07-1.33-.4-1.92-1.21-1.92s-1.19.54-1.19,1.4c0,1.38,1,2.32,2.22,3.63,1.52,1.59,2.47,2.74,2.47,4.87A3.5,3.5,0,0,1,45.66,26c-2.17,0-3.57-1.54-3.66-4.23Z"/><path class="cls-1" d="M44.17,21.42c.07,1.54.54,2.29,1.47,2.29A1.33,1.33,0,0,0,47,22.23c0-1.29-.82-2.06-2-3.32-1.61-1.71-2.75-3-2.75-5a3.6,3.6,0,0,1,3.43-3.84c1.84,0,3.15,1.4,3.31,3.81l-2.17.33c-.07-1.33-.4-1.92-1.21-1.92s-1.19.54-1.19,1.4c0,1.38,1,2.32,2.22,3.63,1.52,1.59,2.47,2.74,2.47,4.87A3.5,3.5,0,0,1,45.66,26c-2.17,0-3.57-1.54-3.66-4.23Z"/><path class="cls-1" d="M91.39,10c2,0,3.34,1.45,3.34,3.93v7.86c0,2.71-1.26,4.19-3.43,4.19s-3.41-1.45-3.41-4.26V13.86C87.91,11.47,89.2,10,91.39,10Zm1.05,3.7c0-1.08-.4-1.59-1.14-1.59s-1.14.51-1.14,1.59v8.56c0,1.08.4,1.61,1.14,1.61s1.14-.54,1.14-1.61Z"/><path class="cls-1" d="M91.39,10c2,0,3.34,1.45,3.34,3.93v7.86c0,2.71-1.26,4.19-3.43,4.19s-3.41-1.45-3.41-4.26V13.86C87.91,11.47,89.2,10,91.39,10Zm1.05,3.7c0-1.08-.4-1.59-1.14-1.59s-1.14.51-1.14,1.59v8.56c0,1.08.4,1.61,1.14,1.61s1.14-.54,1.14-1.61Z"/><path class="cls-1" d="M78.79,13.86c0-2.39,1.28-3.86,3.48-3.86,2,0,3.34,1.45,3.34,3.93V15.4H83.31V13.72c0-1.08-.4-1.59-1.14-1.59S81,12.64,81,13.72v8.56c0,1.08.4,1.61,1.14,1.61s1.14-.54,1.14-1.61V20.2H85.6v1.61c0,2.71-1.26,4.19-3.43,4.19s-3.41-1.45-3.41-4.26V13.86Z"/><path class="cls-1" d="M78.79,13.86c0-2.39,1.28-3.86,3.48-3.86,2,0,3.34,1.45,3.34,3.93V15.4H83.31V13.72c0-1.08-.4-1.59-1.14-1.59S81,12.64,81,13.72v8.56c0,1.08.4,1.61,1.14,1.61s1.14-.54,1.14-1.61V20.2H85.6v1.61c0,2.71-1.26,4.19-3.43,4.19s-3.41-1.45-3.41-4.26V13.86Z"/></svg>
